packages/base/core/src/svg/system/chat.svg

<?xml version="1.0" encoding="UTF-8"?>
<svg width="24px" height="24px" viewBox="0 0 24 24" version="1.1" xmlns="http://www.w3.org/2000/svg" xmlns:xlink="http://www.w3.org/1999/xlink">
    <!-- Generator: Sketch 54.1 (76490) - https://sketchapp.com -->
    <title>Icons/System/chat</title>
    <desc>Created with Sketch.</desc>
    <g id="Icons/System/chat" stroke="none" stroke-width="1" fill="none" fill-rule="evenodd">
        <path d="M5.25986182,19.2520351 L8.37667095,17.6936305 C8.59530808,17.584312 8.84641416,17.5588614 9.08253943,17.6220879 C10.012972,17.8712271 10.9947146,18 12,18 C17.0134728,18 21,14.8107782 21,11 C21,7.1892218 17.0134728,4 12,4 C6.98652725,4 3,7.1892218 3,11 C3,12.7360741 3.82321974,14.3858851 5.3078318,15.6714205 C5.56494889,15.8940599 5.69127831,16.2321197 5.64317893,16.5688153 L5.25986182,19.2520351 Z M4.4472136,21.8944272 C3.72571325,22.2551774 2.89597129,21.6571332 3.01005051,20.8585786 L3.58870304,16.8080109 C1.93682597,15.207823 1,13.1696679 1,11 C1,5.9742222 5.96777776,2 12,2 C18.0322222,2 23,5.9742222 23,11 C23,16.0257778 18.0322222,20 12,20 C10.9534562,20 9.92582066,19.8807009 8.93959435,19.6482368 L4.4472136,21.8944272 Z" id="Color" fill="#2859C0"></path>
    </g>
</svg>

<svg xmlns="http://www.w3.org/2000/svg" width="24" height="24" viewBox="0 0 24 24">
    <path fill="#0050D7" fill-rule="evenodd" d="M5.26 19.252l3.117-1.558a1 1 0 0 1 .706-.072c.93.25 1.912.378 2.917.378 5.013 0 9-3.19 9-7s-3.987-7-9-7-9 3.19-9 7c0 1.736.823 3.386 2.308 4.671a1 1 0 0 1 .335.898l-.383 2.683zm-.813 2.642A1 1 0 0 1 3.01 20.86l.579-4.051C1.937 15.208 1 13.17 1 11c0-5.026 4.968-9 11-9s11 3.974 11 9-4.968 9-11 9c-1.047 0-2.074-.12-3.06-.352l-4.493 2.246z"/>
</svg>
